docs/img/icons/facebook.svg

<svg width="24" height="24" viewBox="0 0 24 24" xmlns="http://www.w3.org/2000/svg">
<g>
<path d="M17.5628 1.00458L14.7856 1C11.6654 1 9.64903 3.12509 9.64903 6.41423V8.91055H6.85662C6.61532 8.91055 6.41992 9.1115 6.41992 9.35937V12.9763C6.41992 13.2241 6.61554 13.4249 6.85662 13.4249H9.64903V22.5514C9.64903 22.7993 9.84443 23 10.0857 23H13.729C13.9703 23 14.1657 22.799 14.1657 22.5514V13.4249H17.4307C17.672 13.4249 17.8674 13.2241 17.8674 12.9763L17.8688 9.35937C17.8688 9.24036 17.8226 9.12638 17.7409 9.04215C17.6591 8.95793 17.5477 8.91055 17.4318 8.91055H14.1657V6.79439C14.1657 5.77728 14.4017 5.26094 15.6915 5.26094L17.5624 5.26025C17.8035 5.26025 17.9989 5.0593 17.9989 4.81166V1.45317C17.9989 1.20576 17.8037 1.00504 17.5628 1.00458Z" />
</g>
</svg>

<svg width="24" height="24" xmlns="http://www.w3.org/2000/svg"><path d="M17.563 1.005L14.786 1c-3.12 0-5.137 2.125-5.137 5.414v2.497H6.857c-.242 0-.437.2-.437.448v3.617c0 .248.196.449.437.449h2.792v9.126c0 .248.195.449.437.449h3.643a.443.443 0 00.437-.449v-9.126h3.265c.241 0 .436-.2.436-.449l.002-3.617a.456.456 0 00-.128-.317.431.431 0 00-.31-.131h-3.265V6.794c0-1.017.236-1.533 1.525-1.533h1.871a.444.444 0 00.437-.45V1.454a.443.443 0 00-.436-.448z"/></svg>
